X: 22
M: 6/8
L: 1/8
K: G
V: 1
d2d |\
c2c BAB | A3 c2c | B2B AGA | G3 e2g |\
(dB).g e2g | (dB).g e2g | (dc).B (cB).A | G3 :|
|: E2F |\
(GF).G A2B | c2B c2d | e2f gfe | d3 E2F |\
|: B2c |\
ded gfe | d3 gfe | ded c2B | A3 B2c |\
ded gfe | d2d gfe | ded cBA | G3 :|
|: B2c |\
dBG A2B | c2B c2d | ecA B2c | d3 g2a |\
bgd g2a | bgd g2a | bag def | g3 :|
V: 2 clef=bass middle=d
fed g2G | d3 f2d | g2G d2c | BAG g2G |
g2G g2G | g2G g2G | g2G d2D | G3 :||: c2d | G3- G2g | G3- G2g |
f2z g2z | G2z B2d | g2G B2d | g2G B2d | g2G d2D | G3 :|


